!!!COM: Music21
!!!OTL: Alalá de Villalba
!!!OMV: pezas_alalas_alala-de-villalba_alala-de-villalba-partitura.musicxml
**kern
*part1
*staff1
*I"Bagpipes
*I'Bag
*clefG2
*k[b-]
*F:
*M4/4
=1
!LO:TX:a:t=Adagio
*MM72
!LO:TX:a:t=[quarter]=72
4c
8fL
8eJ
8fL
8g
8a
8b-J
=
8ccL
8d
8e
8ccJ
8b-L
8c
8d
8b-J
=
4a
8ddL
8ccJ
8aL
8f
8d
8cJ
=
1g
=||
*M4/4
!LO:TX:a:t=Adagio
*MM72
!LO:TX:a:t=[quarter]=72
4c
8fL
8eJ
8fL
8g
8a
8b-J
!!linebreak:original
=
8ccL
8d
8e
8ccJ
8b-L
8c
8d
8b-J
=
4a
8ddL
8ccJ
8aL
8f
8d
8cJ
=
1g
=||
4a
4a
4a
4f
=
4b-
4b-
4b-
4g
=
4b-
4cc
4dd
4ee
=
2.ff
4dd
!!linebreak:original
=
8eeL
8ddJ
[4cc
2cc]
=
8ddL
8eeJ
4ff
4.ee
8dd
=
4cc
4b-
4g
8b-L
8ccJ
=
4.dd
8cc
4a
4f
=
4.g
16aLL
16gJJ
[2f
=
2f]
8ddL
8eeJ
4ff
=
4.ee
8dd
4cc
4b-
!!linebreak:original
=
4g
8b-L
8ccJ
4.dd
8cc
=
4a
4f
4.g
16aLL
16gJJ
=
4c
8fL
8eJ
8fL
8g
8a
8b-J
=
8ccL
8d
8e
8ccJ
8b-L
8c
8d
8b-J
=
4a
8ddL
8ccJ
8aL
8f
8d
8cJ
=
1g
!!linebreak:original
=
4c
8fL
8eJ
8fL
8g
8a
8b-J
=
8ccL
8d
8e
8ccJ
8b-L
8c
8d
8b-J
=
4a
8ddL
8ccJ
8aL
8f
8d
8cJ
=
1g
=
1f;
==
*-
!!!system-decoration: s1,s2
